src/24/panel/pia_tray_connecting.svg

<svg xmlns="http://www.w3.org/2000/svg" width="24" height="24" version="1.1">
 <defs>
  <style id="current-color-scheme" type="text/css">
   .ColorScheme-Text { color:#dfdfdf; } .ColorScheme-Highlight { color:#5294e2; }
  </style>
 </defs>
 <path style="opacity:0.3;fill:currentColor" class="ColorScheme-Text" d="M 12.5,4 C 9.4627564,4 7.0004562,6.3276432 7,9.199219 7.00172,9.332894 7.00888,9.466457 7.021484,9.599609 L 7,9.599609 7,10 5.8339844,10 C 5.3723177,10 5,10.346455 5,10.777344 l 0,5.445312 C 5,16.653545 5.3723177,17 5.8339844,17 L 7,17 7,19.199219 C 7,19.642419 7.3769338,20 7.8457031,20 l 2.9628909,0 1.267578,-2 0.847656,0 1.267578,2 2.962891,0 C 17.623066,20 18,19.642419 18,19.199219 L 18,17 19.166016,17 C 19.627682,17 20,16.653545 20,16.222656 l 0,-5.445312 C 20,10.346455 19.627682,10 19.166016,10 L 18,10 l 0,-0.400391 -0.01758,0 C 17.99372,9.466409 17.99958,9.332846 18,9.199219 17.999544,6.3276432 15.537244,4 12.5,4 Z m 0,2 c 1.932663,-1e-7 3.5,0.9990235 3.5,3.976563 -5.58e-4,0.01498 -0.0012,0.03191 -0.002,0.04687 L 9,10.021484 c -9.31e-5,-0.01497 -9.31e-5,-0.02995 0,-0.04492 C 9,6.9990235 10.567337,5.9999998 12.5,6 Z m -2.5,2 0,1 1,0 0,-1 -1,0 z m 4,0 0,1 1,0 0,-1 -1,0 z M 8.5,12 A 1.5,1.5 0 0 1 10,13.5 1.5,1.5 0 0 1 8.5,15 1.5,1.5 0 0 1 7,13.5 1.5,1.5 0 0 1 8.5,12 Z m 4,0 A 1.5,1.5 0 0 1 14,13.5 1.5,1.5 0 0 1 12.5,15 1.5,1.5 0 0 1 11,13.5 1.5,1.5 0 0 1 12.5,12 Z m 4,0 A 1.5,1.5 0 0 1 18,13.5 1.5,1.5 0 0 1 16.5,15 1.5,1.5 0 0 1 15,13.5 1.5,1.5 0 0 1 16.5,12 Z"/>
 <path style="fill:currentColor" class="ColorScheme-Text" d="m 8,13 0,1 1,0 0,-1 -1,0 z m 4,0 0,1 1,0 0,-1 -1,0 z m 4,0 0,1 1,0 0,-1 -1,0 z"/>
</svg>

<svg xmlns="http://www.w3.org/2000/svg" width="24" height="24"><defs><style id="current-color-scheme" type="text/css">.ColorScheme-Text{color:#dfdfdf}</style></defs><path class="ColorScheme-Text" d="M12.5 4C9.463 4 7 6.328 7 9.2c.002.133.009.266.021.4H7v.4H5.834c-.462 0-.834.346-.834.777v5.446c0 .43.372.777.834.777H7v2.2c0 .442.377.8.846.8h2.963l1.267-2h.848l1.267 2h2.963c.47 0 .846-.358.846-.8V17h1.166c.462 0 .834-.346.834-.777v-5.446c0-.43-.372-.777-.834-.777H18v-.4h-.018A4.92 4.92 0 0 0 18 9.2C18 6.327 15.537 4 12.5 4zm0 2c1.933 0 3.5.999 3.5 3.977l-.002.046L9 10.021v-.044C9 6.999 10.567 6 12.5 6zM10 8v1h1V8h-1zm4 0v1h1V8h-1zm-5.5 4a1.5 1.5 0 0 1 1.5 1.5A1.5 1.5 0 0 1 8.5 15 1.5 1.5 0 0 1 7 13.5 1.5 1.5 0 0 1 8.5 12zm4 0a1.5 1.5 0 0 1 1.5 1.5 1.5 1.5 0 0 1-1.5 1.5 1.5 1.5 0 0 1-1.5-1.5 1.5 1.5 0 0 1 1.5-1.5zm4 0a1.5 1.5 0 0 1 1.5 1.5 1.5 1.5 0 0 1-1.5 1.5 1.5 1.5 0 0 1-1.5-1.5 1.5 1.5 0 0 1 1.5-1.5z" opacity=".3" fill="currentColor"/><path class="ColorScheme-Text" d="M8 13v1h1v-1H8zm4 0v1h1v-1h-1zm4 0v1h1v-1h-1z" fill="currentColor"/></svg>
